X:4649
T:No Room for the Cuckoo
O:england
M:6/8
C:
S:Chingford MM
N:
A:Chingford
R:Jig
%P:A.(AB$^3$C)$^4$.A
P:A.(AB3C)4.A
L:1/8
K:G
I:speed 300
P:A
|:\
z|GAB FED|EGe dBG|GAB FED|E2 F G2:|\
P:B
A|B3  B3|BAG A3|GAB FED|E2 F G2||\
P:C
z|BAG BAG|BAG A3|GAB FED|E2 F G2||
